!!!COM: Mozart, Wolfgang Amadeus
!!!OTL: String Quartet No. 4 in C Major
!!!OMD: Presto
!!!OMV: 3
!!!SCT1: K<sup>1</sup> 157
!!!SCA: Chronologisch-thematisches Verzeichnis sämtlicher Tonwerke Wolfgang Amade Mozarts (L. von Köchel; 1862, 2/1905, 3/1937, 1947)
!!!SCT2: K<sup>6</sup> 157
!!!YOR: Breitkopf & Härtel Edition
!!!ENC: Edmund Correia, Jr.
!!!CDT: 1756/1/27/-1791/12/5/
!!!OCY: Österreich
!!!YEC: Copyright (c) 1994, 2000 Center for Computer Assisted Research in the Humanities
!!!YEM: Rights to all derivative editions reserved.
!!!YEM: Refer to licensing agreement for further details.
!!!YEN: United States of America
**kern	**dynam	**kern	**dynam	**kern	**dynam	**kern	**dynam
*I:Violoncello	*I:Violoncello	*I:Viola	*I:Viola	*I:Violino 2	*I:Violino 2	*I:Violino 1	*I:Violino 1
*>[A,A,B]	*	*>[A,A,B]	*	*>[A,A,B]	*	*>[A,A,B]	*
*>A	*	*>A	*	*>A	*	*>A	*
*clefF4	*	*clefC3	*	*clefG2	*	*clefG2	*
*k[]	*	*k[]	*	*k[]	*	*k[]	*
*C:	*	*C:	*	*C:	*	*C:	*
*M2/4	*	*M2/4	*	*M2/4	*	*M2/4	*
! Presto	!	! Presto	!	! Presto	!	! Presto	!
2r	.	2r	.	8e'/L	f	8cc'\L	f
.	.	.	.	8g'/	.	8ee'\	.
.	.	.	.	8f'/	.	8dd'\	.
.	.	.	.	8d'/J	.	8b'\J	.
=2	=2	=2	=2	=2	=2	=2	=2
2r	.	2r	.	8e'/L	.	8cc'\L	.
.	.	.	.	8g'/	.	8ee'\	.
.	.	.	.	8f'/	.	8dd'\	.
.	.	.	.	8d'/J	.	8b'\J	.
=3	=3	=3	=3	=3	=3	=3	=3
8C/	f	8c\L	f	8e/	.	8cc\	.
4A\	.	8c\	.	4f/	.	4ff\	.
.	.	8c\	.	.	.	.	.
8G\	.	8c\J	.	8e/	.	8ee\	.
=4	=4	=4	=4	=4	=4	=4	=4
! 16GP/	!	!	!	! 16eP/	!	! 16eeP/	!
4Fp\	.	4B/	.	4dp/	.	4ddp\	.
4E\	.	4c\	.	4c/	.	4cc\	.
=5	=5	=5	=5	=5	=5	=5	=5
8E\	.	8c\L	.	8c/	.	8cc\	.
4F\	.	8c\	.	4a/	.	4aa\	.
.	.	8c\	.	.	.	.	.
8E\	.	8c\J	.	8g/	.	8gg\	.
=6	=6	=6	=6	=6	=6	=6	=6
! 16EP/	!	!	!	! 16gP/	!	! 16ggP/	!
4Dp\	.	4B/	.	4fp/	.	4ffp\	.
4C/	.	4c\	.	4e/	.	4ee\	.
=7	=7	=7	=7	=7	=7	=7	=7
8F\L	.	8A/L	.	8d/L	.	8dd\L	.
8E\	.	8G/	.	8c/	.	8cc\	.
8D\	.	8F/	.	8B/	.	8b\	.
8C\J	.	8E/J	.	8c/J	.	8cc\J	.
=8	=8	=8	=8	=8	=8	=8	=8
4G\	.	4G/	.	4B/	.	4dd\	.
4GG/	.	4B/	.	4d/	.	4g/	.
=9	=9	=9	=9	=9	=9	=9	=9
2r	.	2r	.	8e'/L	.	8cc'\L	.
.	.	.	.	8g'/	.	8ee'\	.
.	.	.	.	8f'/	.	8dd'\	.
.	.	.	.	8d'/J	.	8b'\J	.
=10	=10	=10	=10	=10	=10	=10	=10
2r	.	2r	.	8e'/L	.	8cc'\L	.
.	.	.	.	8g'/	.	8ee'\	.
.	.	.	.	8f'/	.	8dd'\	.
.	.	.	.	8d'/J	.	8b'\J	.
=11	=11	=11	=11	=11	=11	=11	=11
4C/	.	8c\	.	8e/	.	8cc\	.
.	.	4c\	.	4f/	.	4ff\	.
4G\	.	.	.	.	.	.	.
.	.	[8c\	.	[8e/	.	[8ee\	.
=12	=12	=12	=12	=12	=12	=12	=12
4F\	.	8c\]	.	8e/]	.	8ee\]	.
.	.	4B/	.	4d/	.	4dd\	.
4E\	.	.	.	.	.	.	.
.	.	[8c\	.	[8c/	.	[8cc\	.
=13	=13	=13	=13	=13	=13	=13	=13
4A\	.	8c\]	.	8c/]	.	8cc\]	.
.	.	4c\	.	4cc\	.	4ccc\	.
4G\	.	.	.	.	.	.	.
.	.	[8c\	.	[8b\	.	[8bb\	.
=14	=14	=14	=14	=14	=14	=14	=14
4F\	.	8c\]	.	8b\]	.	8bb\]	.
.	.	4c\	.	4a/	.	4aa\	.
4E\	.	.	.	.	.	.	.
.	.	[8e\	.	[8g/	.	[8gg\	.
=15	=15	=15	=15	=15	=15	=15	=15
4F\	.	8e\]	.	8g/]	.	8gg\]	.
.	.	4d\	.	4f/	.	4ff\	.
4G\	.	.	.	.	.	.	.
.	.	8B/	.	8d/	.	8dd\	.
=16	=16	=16	=16	=16	=16	=16	=16
4C/	.	4c\	.	4c/	.	4cc\	.
4r	.	4r	.	4r	.	4r	.
=17:|!	=17:|!	=17:|!	=17:|!	=17:|!	=17:|!	=17:|!	=17:|!
*>B	*	*>B	*	*>B	*	*>B	*
4r	.	4r	.	4r	.	(32ee\LLL	.
.	.	.	.	.	.	32ff#\JJ	.
.	.	.	.	.	.	8.gg\J)	.
4D\	.	4f#\	.	4a/	.	(16ff#\LL	.
.	.	.	.	.	.	16ee\	.
.	.	.	.	.	.	16dd\	.
.	.	.	.	.	.	16cc\JJ)	.
=18	=18	=18	=18	=18	=18	=18	=18
4r	.	4r	.	4r	.	(32b\LLL	.
.	.	.	.	.	.	32cc\JJ	.
.	.	.	.	.	.	8.dd\J)	.
4G\	.	4d\	.	4g/	.	(16cc/LL	.
.	.	.	.	.	.	16b/	.
.	.	.	.	.	.	16a/	.
.	.	.	.	.	.	16g/JJ)	.
=19	=19	=19	=19	=19	=19	=19	=19
4r	.	4r	.	4r	.	(32cc\LLL	.
.	.	.	.	.	.	32dd\JJ	.
.	.	.	.	.	.	8.ee\J)	.
4C/	.	4e\	.	4g/	.	(16cc/LL	.
.	.	.	.	.	.	16b/	.
.	.	.	.	.	.	16a/	.
.	.	.	.	.	.	16g/JJ)	.
=20	=20	=20	=20	=20	=20	=20	=20
4r	.	4r	.	4r	.	(32f#/LLL	.
.	.	.	.	.	.	32g/JJ	.
.	.	.	.	.	.	8.a/J)	.
4D\	.	4A/	.	4d/	.	(16g/LL	.
.	.	.	.	.	.	16f#/	.
.	.	.	.	.	.	16e/	.
.	.	.	.	.	.	16d/JJ)	.
=21	=21	=21	=21	=21	=21	=21	=21
(4E\	p	(4G/	p	8r	.	8r	.
.	.	.	.	(8c/L	p	(8cc\L	p
4F#\	.	4A/	.	8e/	.	8ee\	.
.	.	.	.	8d/J)	.	8dd\J)	.
=22	=22	=22	=22	=22	=22	=22	=22
4G\	.	4B/)	.	(8d/L	.	(8dd\L	.
.	.	.	.	8B/J)	.	8b\J)	.
4B\)	.	4r	.	4d/	.	4dd\	.
=23	=23	=23	=23	=23	=23	=23	=23
(4E\	.	(4G/	.	8r	.	8r	.
.	.	.	.	(8c/L	.	(8cc\L	.
4F#\	.	4A/	.	8e/	.	8ee\	.
.	.	.	.	8d/J)	.	8dd\J)	.
=24	=24	=24	=24	=24	=24	=24	=24
4G\	.	4B/)	.	(8d/L	.	(8dd\L	.
.	.	.	.	8B/J)	.	8b\J)	.
4B\)	.	4r	.	4d/	.	4dd\	.
=25	=25	=25	=25	=25	=25	=25	=25
!	!	!	!	!	!	! 16aaP/	!
8BB/L	f	8d\L	f	8g/L	f	8ggp\L	f
8BB/	.	8d\	.	8g/	.	16ff#\L	.
.	.	.	.	.	.	16ee\JJ	.
!	!	!	!	!	!	! 16eeP/	!
8BB/	.	8d\	.	8g/	.	8ddp\L	.
8BB/J	.	8d\J	.	8g/J	.	16cc\L	.
.	.	.	.	.	.	16b\JJ	.
=26	=26	=26	=26	=26	=26	=26	=26
8C/L	.	8e\L	.	8g/L	.	(4b\	.
8C/	.	8e\	.	8g/	.	.	.
8C/	.	8e\	.	8g/	.	8a/L)	.
8C/J	.	8e\J	.	8g/J	.	8b'/J	.
=27	=27	=27	=27	=27	=27	=27	=27
!	!	!	!	!	!	! 16ddP/	!
8D\L	.	8A/L	.	8f#/L	.	8ccp\L	.
8D\	.	8A/	.	8f#/	.	16b\L	.
.	.	.	.	.	.	16a\JJ	.
!	!	!	!	!	!	! 16bP/	!
8D\	.	8A/	.	8f#/	.	8ap/L	.
8D\J	.	8A/J	.	8c/J	.	16g/L	.
.	.	.	.	.	.	16f#/JJ	.
=28	=28	=28	=28	=28	=28	=28	=28
8E\L	.	(4A/	.	(4c/	.	(4f#/	.
8E\	.	.	.	.	.	.	.
8E\	.	8G/)	.	8B/)	.	8g/L)	.
8E\J	.	8r	.	8r	.	8b'/J	.
=29	=29	=29	=29	=29	=29	=29	=29
!	!	!	!	!	!	! 16aaP/	!
8BB/L	.	8d\L	.	8g/L	.	8ggp\L	.
8BB/	.	8d\	.	8g/	.	16ff#\L	.
.	.	.	.	.	.	16ee\JJ	.
!	!	!	!	!	!	! 16eeP/	!
8BB/	.	8d\	.	8g/	.	8ddp\L	.
8BB/J	.	8d\J	.	8g/J	.	16cc\L	.
.	.	.	.	.	.	16b\JJ	.
=30	=30	=30	=30	=30	=30	=30	=30
8C/L	.	8e\L	.	8g/L	.	(4b\	.
8C/	.	8e\	.	8g/	.	.	.
8C/	.	8e\	.	8g/	.	8a/L)	.
8BB/J	.	8d\J	.	8g/J	.	8b'/J	.
=31	=31	=31	=31	=31	=31	=31	=31
!	!	!	!	!	!	! 16ddP/	!
4AA/	.	4A/	.	4e/	.	8ccp\L	.
.	.	.	.	.	.	16b\L	.
.	.	.	.	.	.	16a\JJ	.
!	!	!	!	!	!	! 16bP/	!
4D\	.	4A/	.	4c/	.	8ap/L	.
.	.	.	.	.	.	16g/L	.
.	.	.	.	.	.	16f#/JJ	.
=32	=32	=32	=32	=32	=32	=32	=32
4GG/	.	4G/	.	8B/L	.	4g/	.
.	.	.	.	(8g/	.	.	.
4r	.	4r	.	8fn/	.	4r	.
.	.	.	.	8d/J)	.	.	.
=33	=33	=33	=33	=33	=33	=33	=33
2r	.	2r	.	8e'/L	.	8cc'\L	.
.	.	.	.	8g'/	.	8ee'\	.
.	.	.	.	8f'/	.	8dd'\	.
.	.	.	.	8d'/J	.	8b'\J	.
=34	=34	=34	=34	=34	=34	=34	=34
2r	.	2r	.	8e'/L	.	8cc'\L	.
.	.	.	.	8g'/	.	8ee'\	.
.	.	.	.	8f'/	.	8dd'\	.
.	.	.	.	8d'/J	.	8b'\J	.
=35	=35	=35	=35	=35	=35	=35	=35
8C/	.	8c\L	.	8e/	.	8cc\	.
4A\	.	8c\	.	4f/	.	4ff\	.
.	.	8c\	.	.	.	.	.
8G\	.	8c\J	.	8e/	.	8ee\	.
=36	=36	=36	=36	=36	=36	=36	=36
! 16GP/	!	!	!	! 16eP/	!	! 16eeP/	!
4Fp\	.	4B/	.	4dp/	.	4ddp\	.
4E\	.	4c\	.	4c/	.	4cc\	.
=37	=37	=37	=37	=37	=37	=37	=37
8E\	.	8c\L	.	8c/	.	8cc\	.
4F\	.	8c\	.	4a/	.	4aa\	.
.	.	8c\	.	.	.	.	.
8E\	.	8c\J	.	8g/	.	8gg\	.
=38	=38	=38	=38	=38	=38	=38	=38
! 16EP/	!	!	!	! 16gP/	!	! 16ggP/	!
4Dp\	.	4B/	.	4fp/	.	4ffp\	.
4C/	.	4c\	.	4e/	.	4ee\	.
=39	=39	=39	=39	=39	=39	=39	=39
8F\L	.	8A/L	.	8d/L	.	8dd\L	.
8E\	.	8G/	.	8c/	.	8cc\	.
8D\	.	8F/	.	8B/	.	8b\	.
8C\J	.	8E/J	.	8c/J	.	8cc\J	.
=40	=40	=40	=40	=40	=40	=40	=40
4G\	.	4G/	.	4B/	.	4dd\	.
4GG/	.	4B/	.	4d/	.	4g/	.
=41	=41	=41	=41	=41	=41	=41	=41
2r	.	2r	.	8e'/L	.	8cc'\L	.
.	.	.	.	8g'/	.	8ee'\	.
.	.	.	.	8f'/	.	8dd'\	.
.	.	.	.	8d'/J	.	8b'\J	.
=42	=42	=42	=42	=42	=42	=42	=42
2r	.	2r	.	8e'/L	.	8cc'\L	.
.	.	.	.	8g'/	.	8ee'\	.
.	.	.	.	8f'/	.	8dd'\	.
.	.	.	.	8d'/J	.	8b'\J	.
=43	=43	=43	=43	=43	=43	=43	=43
4C/	.	8e\	.	8c/	.	8cc\	.
.	.	4c\	.	4f/	.	4ff\	.
4G\	.	.	.	.	.	.	.
.	.	[8c\	.	[8e/	.	[8ee\	.
=44	=44	=44	=44	=44	=44	=44	=44
4F\	.	8c\]	.	8e/]	.	8ee\]	.
.	.	4B/	.	4d/	.	4dd\	.
4E\	.	.	.	.	.	.	.
.	.	[8c\	.	[8c/	.	[8cc\	.
=45	=45	=45	=45	=45	=45	=45	=45
4A\	.	8c\]	.	8c/]	.	8cc\]	.
.	.	4c\	.	4cc\	.	4ccc\	.
4G\	.	.	.	.	.	.	.
.	.	[8c\	.	[8b\	.	[8bb\	.
=46	=46	=46	=46	=46	=46	=46	=46
4F\	.	8c\]	.	8b\]	.	8bb\]	.
.	.	4c\	.	4a/	.	4aa\	.
4E\	.	.	.	.	.	.	.
.	.	[8e\	.	[8g/	.	[8gg\	.
=47	=47	=47	=47	=47	=47	=47	=47
4F\	.	8e\]	.	8g/]	.	8gg\]	.
.	.	4d\	.	4f/	.	4ff\	.
4G\	.	.	.	.	.	.	.
.	.	8B/	.	8d/	.	8dd\	.
=48	=48	=48	=48	=48	=48	=48	=48
4C/	.	4c\	.	4c/	.	4cc\	.
4r	.	4r	.	4r	.	4r	.
=49	=49	=49	=49	=49	=49	=49	=49
2r	.	2r	.	(4e-/	p	(4g/	p
.	.	.	.	8d/L)	.	8f/L)	.
.	.	.	.	8c'/Jxx	.	8e-'/Jxx	.
=50	=50	=50	=50	=50	=50	=50	=50
8r	.	8r	.	(8f/L	.	(8a-/L	.
(8F\L	p	(8A-/L	p	8d/J)	.	8f/J)	.
8E\	.	8G/	.	4r	.	4r	.
8F\J)	.	8A-/J)	.	.	.	.	.
=51	=51	=51	=51	=51	=51	=51	=51
2r	.	2r	.	(4d/	.	(4f/	.
.	.	.	.	8c/L)	.	8e-/L)	.
.	.	.	.	8Bn'/J	.	8d'/J	.
=52	=52	=52	=52	=52	=52	=52	=52
8r	.	8r	.	(8e-/L	.	(8g/L	.
(8C/L	.	(8E-/L	.	8c/J)	.	8e-/J)	.
8BB/	.	8D/	.	4r	.	4r	.
8C/J)	.	8E-/J)	.	.	.	.	.
=53	=53	=53	=53	=53	=53	=53	=53
2GG/	.	2G/	.	(4B/	.	(4d/	.
.	.	.	.	8c/L)	.	8e-/L)	.
.	.	.	.	8d'/J	.	8f'/J	.
=54	=54	=54	=54	=54	=54	=54	=54
2C/	.	2G/	.	(4c/	.	(4e-/	.
.	.	.	.	8d/L)	.	8f/L)	.
.	.	.	.	8e-'/J	.	8g'/J	.
=55	=55	=55	=55	=55	=55	=55	=55
(4F\	.	4r	.	(4c/	.	(4a-/	.
8G\L)	.	8r	.	8B/L)	.	8g/L	.
8A-'\J	.	8c'\	.	8c'/J	.	8f#/J)	.
=56	=56	=56	=56	=56	=56	=56	=56
2G\	.	(4Bn/	.	2d/	.	2g/	.
.	.	4B-/)	.	.	.	.	.
=57	=57	=57	=57	=57	=57	=57	=57
4F\	.	4B-/	.	(4f/	.	(4a-/	.
4r	.	4r	.	8e-/L)	.	8g/L)	.
.	.	.	.	8d'/J	.	8fn'/J	.
=58	=58	=58	=58	=58	=58	=58	=58
8r	.	8r	.	(8g/L	.	(8b-/L	.
(8G\L	.	(8B-/L	.	8e-/J)	.	8g/J)	.
8F\	.	8A-/	.	4r	.	4r	.
8E-\J)	.	8G/J)	.	.	.	.	.
=59	=59	=59	=59	=59	=59	=59	=59
2r	.	2r	.	(4f/	.	(4a-/	.
.	.	.	.	8e-/L)	.	8g/L)	.
.	.	.	.	8d'/J	.	8f'/J	.
=60	=60	=60	=60	=60	=60	=60	=60
8r	.	8r	.	(8g/L	.	(8b-/L	.
(8G\L	.	(8B-/L	.	8e-/J)	.	8g/J)	.
8F\	.	8A-/	.	4r	.	4r	.
8E-\J)	.	8G/J)	.	.	.	.	.
=61	=61	=61	=61	=61	=61	=61	=61
8r	.	8r	.	(8a-/L	.	(8ff\L	.
(8F\L	.	(8A-/L	.	8d/J)	.	8bn\J)	.
8E-\	.	8G/	.	4r	.	4r	.
8D\J)	.	8F/J)	.	.	.	.	.
=62	=62	=62	=62	=62	=62	=62	=62
8r	.	8r	.	(8cc/L	.	(8gg\L	.
(8E-\L	.	(8G/L	.	8e-/J)	.	8cc\J)	.
8D\	.	8F/	.	4r	.	4r	.
8C\J)	.	8E-/J)	.	.	.	.	.
=63	=63	=63	=63	=63	=63	=63	=63
(4F\	.	(4A-/	.	(4f/	.	(4dd\	.
4G\)	.	4G/)	.	8e-/L)	.	8cc\L)	.
.	.	.	.	8d'/J	.	8bn'\J	.
=64	=64	=64	=64	=64	=64	=64	=64
2C/	.	2G/	.	2e-/	.	2cc\	.
=65	=65	=65	=65	=65	=65	=65	=65
2r	.	2r	.	8en'/L	f	8cc'\L	f
.	.	.	.	8g'/	.	8een'\	.
.	.	.	.	8f'/	.	8dd'\	.
.	.	.	.	8d'/J	.	8b'\J	.
=66	=66	=66	=66	=66	=66	=66	=66
2r	.	2r	.	8e'/L	.	8cc'\L	.
.	.	.	.	8g'/	.	8ee'\	.
.	.	.	.	8f'/	.	8dd'\	.
.	.	.	.	8d'/J	.	8b'\J	.
=67	=67	=67	=67	=67	=67	=67	=67
8C/	f	8c\L	f	8c/	.	8cc\	.
4An\	.	8c\	.	4f/	.	(4ff\	.
.	.	8c\	.	.	.	.	.
8G\	.	8c\J	.	8e/	.	8ee\)	.
=68	=68	=68	=68	=68	=68	=68	=68
! 16GP/	!	!	!	! 16eP/	!	! 16eeP/	!
4Fp\	.	4Bn/	.	4dp/	.	4ddp\	.
4En\	.	4c\	.	4c/	.	4cc\	.
=69	=69	=69	=69	=69	=69	=69	=69
8E\	.	8c\L	.	8c/	.	8cc\	.
4F\	.	8c\	.	4an/	.	4aan\	.
.	.	8c\	.	.	.	.	.
8E\	.	8c\J	.	8g/	.	8gg\	.
=70	=70	=70	=70	=70	=70	=70	=70
! 16EP/	!	!	!	! 16gP/	!	! 16ggP/	!
4Dp\	.	4B/	.	4fp/	.	4ffp\	.
4C/	.	4c\	.	4e/	.	4ee\	.
=71	=71	=71	=71	=71	=71	=71	=71
8F\L	.	8An/L	.	8d/L	.	8dd\L	.
8E\	.	8G/	.	8c/	.	8cc\	.
8D\	.	8F/	.	8B/	.	8b\	.
8C\J	.	8En/J	.	8c/J	.	8cc\J	.
=72	=72	=72	=72	=72	=72	=72	=72
4G\	.	4G/	.	4B/	.	4dd\	.
4GG/	.	4B/	.	4d/	.	4g/	.
=73	=73	=73	=73	=73	=73	=73	=73
2r	.	2r	.	8e'/L	.	8cc'\L	.
.	.	.	.	8g'/	.	8ee'\	.
.	.	.	.	8f'/	.	8dd'\	.
.	.	.	.	8d'/J	.	8b'\J	.
=74	=74	=74	=74	=74	=74	=74	=74
2r	.	2r	.	8e'/L	.	8cc'\L	.
.	.	.	.	8g'/	.	8ee'\	.
.	.	.	.	8f'/	.	8dd'\	.
.	.	.	.	8d'/J	.	8b'\J	.
=75	=75	=75	=75	=75	=75	=75	=75
4C/	.	8e\	.	8c/	.	8cc\	.
.	.	4c\	.	4f/	.	4ff\	.
4G\	.	.	.	.	.	.	.
.	.	[8c\	.	[8e/	.	[8ee\	.
=76	=76	=76	=76	=76	=76	=76	=76
4F\	.	8c\]	.	8e/]	.	8ee\]	.
.	.	4B/	.	4d/	.	4dd\	.
4E\	.	.	.	.	.	.	.
.	.	[8c\	.	[8c/	.	[8cc\	.
=77	=77	=77	=77	=77	=77	=77	=77
4A\	.	8c\]	.	8c/]	.	8cc\]	.
.	.	4c\	.	4cc\	.	4ccc\	.
4G\	.	.	.	.	.	.	.
.	.	[8c\	.	[8b\	.	[8bb\	.
=78	=78	=78	=78	=78	=78	=78	=78
4F\	.	8c\]	.	8b\]	.	8bb\]	.
.	.	4c\	.	4a/	.	4aa\	.
4E\	.	.	.	.	.	.	.
.	.	[8e\	.	[8g/	.	[8gg\	.
=79	=79	=79	=79	=79	=79	=79	=79
4F\	.	8e\]	.	8g/]	.	8gg\]	.
.	.	4d\	.	4f/	.	4ff\	.
4G\	.	.	.	.	.	.	.
.	.	8B/	.	8d/	.	8dd\	.
=80	=80	=80	=80	=80	=80	=80	=80
4C/	.	4c\	.	4c/	.	4cc\	.
4r	.	4r	.	4r	.	4r	.
=81	=81	=81	=81	=81	=81	=81	=81
(4A\	p	(4c\	p	8r	.	8r	.
.	.	.	.	(8f/L	p	(8ff\L	p
4B\	.	4d\	.	8a/	.	8aa\	.
.	.	.	.	8g/J)	.	8gg\J)	.
=82	=82	=82	=82	=82	=82	=82	=82
4c\	.	4e\)	.	(8g/L	.	(8gg\L	.
.	.	.	.	8e/J)	.	8ee\J)	.
4e\)	.	4r	.	4g/	.	4gg\	.
=83	=83	=83	=83	=83	=83	=83	=83
(4A\	.	(4c\	.	8r	.	8r	.
.	.	.	.	(8f/L	.	(8ff\L	.
4B\	.	4d\	.	8a/	.	8aa\	.
.	.	.	.	8g/J)	.	8gg\J)	.
=84	=84	=84	=84	=84	=84	=84	=84
4c\	.	4e\)	.	(8g/L	.	(8gg\L	.
.	.	.	.	8e/J)	.	8ee\J)	.
4e\)	.	4r	.	4g/	.	4gg\	.
=85	=85	=85	=85	=85	=85	=85	=85
!	!	!	!	!	!	! 16dddP/	!
8E\L	f	8g\L	f	8cc\L	f	8cccp\L	f
8E\	.	8g\	.	8cc\	.	16bb\L	.
.	.	.	.	.	.	16aa\JJ	.
!	!	!	!	!	!	! 16aaP/	!
8E\	.	8g\	.	8cc\	.	8ggp\L	.
8E\J	.	8g\J	.	8cc\J	.	16ff\L	.
.	.	.	.	.	.	16ee\JJ	.
=86	=86	=86	=86	=86	=86	=86	=86
8F\L	.	8a\L	.	8cc\L	.	(4ee\	.
8F\	.	8a\	.	8cc\	.	.	.
8F\	.	8a\	.	8cc\	.	8dd\L)	.
8F\J	.	8a\J	.	8cc\J	.	8ee'\J	.
=87	=87	=87	=87	=87	=87	=87	=87
!	!	!	!	!	!	! 16ggP/	!
8G\L	.	2d\	.	(4b\	.	8ffp\L	.
8G\	.	.	.	.	.	16ee\L	.
.	.	.	.	.	.	16dd\JJ	.
!	!	!	!	!	!	! 16eeP/	!
8G\	.	.	.	4f/)	.	8ddp\L	.
8G\J	.	.	.	.	.	16cc\L	.
.	.	.	.	.	.	16b\JJ	.
=88	=88	=88	=88	=88	=88	=88	=88
2C/	.	(4d\	.	(4f/	.	(4b\	.
.	.	4c\)	.	4e/)	.	4cc\)	.
=89	=89	=89	=89	=89	=89	=89	=89
(4AA/	p	4r	.	(4c/	p	8r	.
.	.	.	.	.	.	(8f/L	p
4BB/	.	[4G/	p	4d/)	.	8a/	.
.	.	.	.	.	.	8g/J)	.
=90	=90	=90	=90	=90	=90	=90	=90
4C/	.	4G/]	.	(8e/L	.	(8g/L	.
.	.	.	.	8c/J)	.	8e/J)	.
4E\)	.	4r	.	4c/	.	4g/	.
=91	=91	=91	=91	=91	=91	=91	=91
(4AA/	.	4r	.	(4c/	.	8r	.
.	.	.	.	.	.	(8e/L	.
4BB/	.	[4G/	.	4d/)	.	8a/	.
.	.	.	.	.	.	8g/J)	.
=92	=92	=92	=92	=92	=92	=92	=92
4C/	.	4G/]	.	(8e/L	.	(8g/L	.
.	.	.	.	8c/J)	.	8e/J)	.
4E\)	.	4r	.	4c/	.	4g/	.
=93	=93	=93	=93	=93	=93	=93	=93
!	!	!	!	!	!	! 16ddP/	!
8EE/L	f	8G/L	f	8c/L	f	8ccp\L	f
8EE/	.	8G/	.	8c/	.	16b\L	.
.	.	.	.	.	.	16a\JJ	.
!	!	!	!	!	!	! 16aP/	!
8EE/	.	8G/	.	8c/	.	8gp/L	.
8EE/J	.	8G/J	.	8c/J	.	16f/L	.
.	.	.	.	.	.	16e/JJ	.
=94	=94	=94	=94	=94	=94	=94	=94
8FF/L	.	8A/L	.	8c/L	.	(4e/	.
8FF/	.	8A/	.	8c/	.	.	.
8FF/	.	8A/	.	8c/	.	8d/L)	.
8FF/J	.	8A/J	.	8c/J	.	8e'/J	.
=95	=95	=95	=95	=95	=95	=95	=95
!	!	!	!	!	!	! 16gP/	!
8GG/L	.	8D/L	.	4B/	.	8fp/L	.
8GG/	.	8D/	.	.	.	16e/L	.
.	.	.	.	.	.	16d/JJ	.
!	!	!	!	!	!	! 16eP/	!
8GG/	.	8D/	.	8r	.	8dp/L	.
8GG/J	.	8F/J	.	8d/	.	16c/L	.
.	.	.	.	.	.	16B/JJ	.
=96	=96	=96	=96	=96	=96	=96	=96
8AA/L	.	(4F/	.	(4d/	.	(4B/	.
8AA/	.	.	.	.	.	.	.
8AA/	.	8E/)	.	8c/)	.	8c/L)	.
8AA/J	.	8r	.	8r	.	8e'/J	.
=97	=97	=97	=97	=97	=97	=97	=97
!	!	!	!	!	!	! 16ddP/	!
8E\L	.	8G/L	.	8c/L	.	8ccp\L	.
8E\	.	8G/	.	8c/	.	16b\L	.
.	.	.	.	.	.	16a\JJ	.
!	!	!	!	!	!	! 16aP/	!
8E\	.	8G/	.	8c/	.	8gp/L	.
8E\J	.	8G/J	.	8c/J	.	16f/L	.
.	.	.	.	.	.	16e/JJ	.
=98	=98	=98	=98	=98	=98	=98	=98
8F\L	.	8A/L	.	8c/L	.	(4e/	.
8F\	.	8A/	.	8c/	.	.	.
8F\	.	8A/	.	8c/	.	8d/L)	.
8F\J	.	8A/J	.	8c/J	.	8dd'/J	.
=99	=99	=99	=99	=99	=99	=99	=99
!	!	!	!	!	!	! 16ggP/	!
8G\L	.	8d\L	.	8B/L	.	8ffp\L	.
8G\	.	8d\	.	8B/	.	16ee\L	.
.	.	.	.	.	.	16dd\JJ	.
!	!	!	!	!	!	! 16eeP/	!
8G\	.	8f\	.	8d/	.	8ddp\L	.
8G\J	.	8d\J	.	8f/J	.	16cc\L	.
.	.	.	.	.	.	16b\JJ	.
=100	=100	=100	=100	=100	=100	=100	=100
4C/	.	4c\	.	4e/	.	4cc\	.
4r	.	4r	.	4r	.	4r	.
=101	=101	=101	=101	=101	=101	=101	=101
2r	.	2r	.	8e'/L	f	8cc'\L	f
.	.	.	.	8g'/	.	8ee'\	.
.	.	.	.	8f'/	.	8dd'\	.
.	.	.	.	8d'/J	.	8b'\J	.
=102	=102	=102	=102	=102	=102	=102	=102
2r	.	2r	.	8e'/L	.	8cc'\L	.
.	.	.	.	8g'/	.	8ee'\	.
.	.	.	.	8f'/	.	8dd'\	.
.	.	.	.	8d'/J	.	8b'\J	.
=103	=103	=103	=103	=103	=103	=103	=103
8C/	f	8c\L	f	8e/	.	8cc\	.
4A\	.	8c\	.	4f/	.	4ff\	.
.	.	8c\	.	.	.	.	.
8G\	.	8c\J	.	8e/	.	8ee\	.
=104	=104	=104	=104	=104	=104	=104	=104
! 16GP/	!	!	!	! 16eP/	!	! 16eeP/	!
4Fp\	.	4B/	.	4dp/	.	4ddp\	.
4E\	.	4c\	.	4c/	.	4cc\	.
=105	=105	=105	=105	=105	=105	=105	=105
8E\	.	8c\L	.	8c/	.	8cc\	.
4F\	.	8c\	.	4a/	.	4aa\	.
.	.	8c\	.	.	.	.	.
8E\	.	8c\J	.	8g/	.	8gg\	.
=106	=106	=106	=106	=106	=106	=106	=106
! 16EP/	!	!	!	! 16gP/	!	! 16ggP/	!
4Dp\	.	4B/	.	4fp/	.	4ffp\	.
4C/	.	4c\	.	4e/	.	4ee\	.
=107	=107	=107	=107	=107	=107	=107	=107
8F\L	.	8A/L	.	8d/L	.	8dd\L	.
8E\	.	8G/	.	8c/	.	8cc\	.
8D\	.	8F/	.	8B/	.	8b\	.
8C\J	.	8E/J	.	8c/J	.	8cc\J	.
=108	=108	=108	=108	=108	=108	=108	=108
4G\	.	4G/	.	4B/	.	4dd\	.
4GG/	.	4B/	.	4d/	.	4g/	.
=109	=109	=109	=109	=109	=109	=109	=109
2r	.	2r	.	8e'/L	.	8cc'\L	.
.	.	.	.	8g'/	.	8ee'\	.
.	.	.	.	8f'/	.	8dd'\	.
.	.	.	.	8d'/J	.	8b'\J	.
=110	=110	=110	=110	=110	=110	=110	=110
2r	.	2r	.	8e'/L	.	8cc'\L	.
.	.	.	.	8g'/	.	8ee'\	.
.	.	.	.	8f'/	.	8dd'\	.
.	.	.	.	8d'/J	.	8b'\J	.
=111	=111	=111	=111	=111	=111	=111	=111
4C/	.	8c\	.	8e/	.	8cc\	.
.	.	4c\	.	4f/	.	4ff\	.
4G\	.	.	.	.	.	.	.
.	.	[8c\	.	[8e/	.	[8ee\	.
=112	=112	=112	=112	=112	=112	=112	=112
4F\	.	8c\]	.	8e/]	.	8ee\]	.
.	.	4B/	.	4d/	.	4dd\	.
4E\	.	.	.	.	.	.	.
.	.	[8c\	.	[8c/	.	[8cc\	.
=113	=113	=113	=113	=113	=113	=113	=113
4A\	.	8c\]	.	8c/]	.	8cc\]	.
.	.	4c\	.	4cc\	.	4ccc\	.
4G\	.	.	.	.	.	.	.
.	.	[8c\	.	[8b\	.	[8bb\	.
=114	=114	=114	=114	=114	=114	=114	=114
4F\	.	8c\]	.	8b\]	.	8bb\]	.
.	.	4c\	.	4a/	.	4aa\	.
4E\	.	.	.	.	.	.	.
.	.	[8e\	.	[8g/	.	[8gg\	.
=115	=115	=115	=115	=115	=115	=115	=115
4F\	.	8e\]	.	8g/]	.	8gg\]	.
.	.	4d\	.	4f/	.	4ff\	.
4G\	.	.	.	.	.	.	.
.	.	8B/	.	8d/	.	8dd\	.
=116	=116	=116	=116	=116	=116	=116	=116
4C/	.	4c\	.	4c/	.	4cc\	.
4r	.	4r	.	4r	.	4r	.
=117	=117	=117	=117	=117	=117	=117	=117
2r	.	2r	.	2r	.	8cc'\L	p
.	.	.	.	.	.	8ee'\	.
.	.	.	.	.	.	8dd'\	.
.	.	.	.	.	.	8b'\J	.
=118	=118	=118	=118	=118	=118	=118	=118
2r	.	2r	.	2r	.	8cc'\L	.
.	.	.	.	.	.	8ee'\	.
.	.	.	.	.	.	8dd'\	.
.	.	.	.	.	.	8b'\J	.
=119	=119	=119	=119	=119	=119	=119	=119
2r	.	2r	.	8c'/L	p	8ee'\L	.
.	.	.	.	8e'/	.	8gg'\	.
.	.	.	.	8d'/	.	8ff'\	.
.	.	.	.	8B'/J	.	8dd'\J	.
=120	=120	=120	=120	=120	=120	=120	=120
2r	.	2r	.	8c'/L	.	8ee'\L	.
.	.	.	.	8e'/	.	8gg'\	.
.	.	.	.	8d'/	.	8ff'\	.
.	.	.	.	8B'/J	.	8dd'\J	.
=121	=121	=121	=121	=121	=121	=121	=121
!	!	! cresc.	!	! cresc.	!	! cresc.	!
2r	.	8c'\L	p	8e'/L	.	16gg\LL	.
.	.	.	.	.	.	16gg\	.
.	.	8e'\	.	8g'/	.	16gg\	.
.	.	.	.	.	.	16gg\JJ	.
.	.	8d'\	.	8f'/	.	16gg\LL	.
.	.	.	.	.	.	16gg\	.
.	.	8B'\J	.	8d'/J	.	16gg\	.
.	.	.	.	.	.	16gg\JJ	.
=122	=122	=122	=122	=122	=122	=122	=122
2r	.	8c'\L	.	8e'/L	.	16gg\LL	.
.	.	.	.	.	.	16gg\	.
.	.	8e'\	.	8g'/	.	16gg\	.
.	.	.	.	.	.	16gg\JJ	.
.	.	8d'\	.	8f'/	.	16gg\LL	.
.	.	.	.	.	.	16gg\	.
.	.	8B'\J	.	8d'/J	.	16gg\	.
.	.	.	.	.	.	16gg\JJ	.
=123	=123	=123	=123	=123	=123	=123	=123
8C/L	f	16e\LL	f	16g/LL 16G/	f	8gg\	.
.	.	16e\	.	16g/ 16G/	.	.	.
8E/	.	16e\	.	16g/ 16G/	.	8r	.
.	.	16e\JJ	.	16g/ 16G/JJ	.	.	.
8D/	.	16f\LL	.	16g/ 16G/LL	.	(8.bbT\L	f
.	.	16f\	.	16g/ 16G/	.	.	.
8GG/J	.	16d\	.	16g/ 16G/	.	.	.
.	.	16d\JJ	.	16g/ 16G/JJ	.	32aa\LL	.
.	.	.	.	.	.	32bb\JJJ)	.
=124	=124	=124	=124	=124	=124	=124	=124
8C/L	.	16e\LL	.	16g/ 16G/LL	.	8ccc\	.
.	.	16e\	.	16g/ 16G/	.	.	.
8E/	.	16g\	.	16g/ 16G/	.	8r	.
.	.	16g\JJ	.	16g/ 16G/JJ	.	.	.
8D/	.	16f\LL	.	16g/ 16G/LL	.	(8.bbT\L	.
.	.	16f\	.	16g/ 16G/	.	.	.
8GG/J	.	16d\	.	16g/ 16G/	.	.	.
.	.	16d\JJ	.	16g/ 16G/JJ	.	32aa\LL	.
.	.	.	.	.	.	32bb\JJJ)	.
=125	=125	=125	=125	=125	=125	=125	=125
4C/	.	8e\	.	8g/ 8G/	.	8ccc\	.
.	.	8r	.	8r	.	8r	.
4C/	.	4e/ 4G/	.	4cc/ 4e/ 4G/	.	4cc/ 4e/ 4G/	.
=126	=126	=126	=126	=126	=126	=126	=126
4C/	.	4e/ 4G/ 4C/	.	4cc/ 4e/ 4G/	.	4cc/ 4e/ 4G/	.
4r	.	4r	.	4r	.	4r	.
==|!	==|!	==|!	==|!	==|!	==|!	==|!	==|!
*-	*-	*-	*-	*-	*-	*-	*-
!!!RWG: Appoggiaturas of spine 'Violino 1' need manual editing in measures: 4, 6, 25, 25, 27, 27, 29, 29, 31, 31, 36, 38, 68, 70, 85, 85, 87, 87, 93, 93, 95, 95, 97, 97, 99, 99, 104, 106
!!!RWG: Appoggiaturas of spine 'Violino 2' need manual editing in measures: 4, 6, 36, 38, 68, 70, 104, 106
!!!RWG: Appoggiaturas of spine 'Violoncello' need manual editing in measures: 4, 6, 36, 38, 68, 70, 104, 106
!!!RWG: Key is interpreted using the Humdrum key tool.
!!!AFT: stage2
!!!END: 1994/03/25
!!!KEY: 2109903583
!!!EMD: Converted from MuseData to Humdrum Dec 16, 2000, by Andreas Kornstaedt using muse2kern.
!!!EMD: Manual editing by Craig Sapp, Nov 2001
